libs/ui/packages/crypto-icons/src/svg/ETC.svg

<svg width="24" height="24" viewBox="0 0 24 24" fill="none">
<path d="M12.0004 12.4324L6.95964 11.9996L11.9996 9.14814V12.4324H12.0004ZM12.0004 15.7774V20.9824C10.2476 18.2539 8.31564 15.2509 6.75864 12.8201C8.59614 13.8551 10.5146 14.9374 12.0004 15.7781V15.7774ZM12.0004 8.22639L6.75864 11.1514L12.0004 3.01764V8.22639Z" fill="#0B8311"/>
<path d="M17.0412 11.9996L12.0005 12.4324V9.14814L17.0405 11.9996H17.0412ZM12.0005 15.7781C13.4855 14.9381 15.4032 13.8551 17.2415 12.8201C15.6845 15.2516 13.7525 18.2546 12.0005 20.9816V15.7781ZM12.0005 8.22639V3.01764L17.2415 11.1514L12.0005 8.22639Z" fill="#0B8311"/>
<path opacity="0.2" fill-rule="evenodd" clip-rule="evenodd" d="M12.0005 12.4324L17.0405 11.9996L12.0005 14.8309V12.4324Z" fill="#0B8311"/>
<path opacity="0.603" fill-rule="evenodd" clip-rule="evenodd" d="M11.9996 12.4324L6.95886 11.9996L11.9996 14.8309V12.4324Z" fill="#0B8311"/>
</svg>

<svg width="24" height="24" viewBox="0 0 24 24" fill="none"><path fill="#0b8311" d="M12 12.432 6.96 12 12 9.148zm0 3.345v5.205c-1.752-2.728-3.684-5.731-5.241-8.162 1.837 1.035 3.756 2.117 5.241 2.958m0-7.55L6.76 11.15 12 3.018zM17.041 12l-5.04.432V9.148zm-5.04 3.778c1.485-.84 3.402-1.923 5.24-2.958-1.556 2.432-3.488 5.435-5.24 8.162zm0-7.552V3.018l5.24 8.133z"/><path fill="#0b8311" fill-rule="evenodd" d="M12 12.432 17.04 12 12 14.83z" clip-rule="evenodd" opacity=".2"/><path fill="#0b8311" fill-rule="evenodd" d="M12 12.432 6.959 12l5.04 2.83z" clip-rule="evenodd" opacity=".603"/></svg>
